assets/img/safety7.svg

<svg width="100" height="101" viewBox="0 0 100 101" fill="none" xmlns="http://www.w3.org/2000/svg">
<circle cx="50" cy="50.4863" r="50" fill="#00AEEF"/>
<path d="M73.1603 66.6253L73.5016 66.1052C73.5489 66.0487 73.5924 65.9889 73.6316 65.9265L73.9729 65.3901C73.9963 65.3446 74.0235 65.3011 74.0542 65.2601L74.4767 64.545L74.8668 63.8461V63.6998C74.9806 63.5048 75.0781 63.2935 75.1756 63.0985V62.9684C75.4357 62.4646 75.6632 61.9445 75.8745 61.4407C75.9883 61.1969 76.0858 60.9368 76.1833 60.6768V60.5955C76.2808 60.3355 76.3783 60.0754 76.4596 59.8316C76.7359 59.019 76.9797 58.2064 77.191 57.3125C77.386 56.4511 77.5648 55.5734 77.6948 54.6958H86V46.6019H77.8898C77.7598 45.708 77.581 44.8466 77.386 43.9852C77.1747 43.14 76.9309 42.3599 76.6546 41.466C76.5734 41.2059 76.4758 40.9621 76.3783 40.7021C76.2808 40.442 76.1833 40.182 76.0695 39.9382C75.8582 39.4181 75.6307 38.9143 75.3707 38.4104V38.2804C75.2731 38.0691 75.1756 37.8741 75.0619 37.6791V37.5328L74.6718 36.8339C74.5255 36.5901 74.3955 36.3463 74.2492 36.1188L74.1679 35.9888L73.8266 35.4524L73.6966 35.2574L73.3553 34.7536L73.2415 34.591L72.7702 33.9409L78.3612 28.3499L72.5102 22.5477L66.9029 28.1224L66.2528 27.6511L66.1065 27.5211C65.9278 27.4073 65.7652 27.2773 65.5865 27.1797L65.4077 27.0497L64.8713 26.7084H64.7413L64.0262 26.2858L63.3273 25.8958H63.181L62.5797 25.587H62.4497C61.9458 25.3432 61.4257 25.1156 60.9219 24.9043L60.158 24.6118H60.0768L59.3129 24.3355C58.4889 24.0404 57.6476 23.7962 56.7937 23.6041C55.9323 23.3928 55.0546 23.2303 54.177 23.1003V14.5188H46.0831V22.824C45.1892 22.954 44.3278 23.1165 43.4664 23.3278C42.6136 23.5243 41.7726 23.7685 40.9472 24.0592L40.1833 24.3355L39.4032 24.6281C38.8831 24.8393 38.3792 25.0669 37.8754 25.3107H37.7454L37.144 25.6195H36.9977L36.2989 26.0095L35.5837 26.4321H35.4537L34.9174 26.7734L34.7223 26.8872L34.0885 27.5211L33.926 27.6186C33.7147 27.7811 33.5034 27.9436 33.2758 28.0899L27.6849 22.5477L22.0289 28.2037L27.6036 33.7946C27.4573 34.0222 27.2948 34.2335 27.1323 34.4448L27.0348 34.6073C26.921 34.7698 26.791 34.9486 26.6935 35.1111L26.5634 35.3062L26.2221 35.8425C26.2172 35.8857 26.2172 35.9293 26.2221 35.9725C26.0758 36.2001 25.9296 36.4438 25.7995 36.6876L25.377 37.3865V37.5328L25.0682 38.1341V38.2642C24.8244 38.768 24.5968 39.2718 24.3856 39.7919L23.8817 40.5233C23.8817 40.7833 23.7029 41.0271 23.6054 41.2872C23.3291 42.1161 23.0691 42.9125 22.874 43.8064C22.6628 44.6678 22.5002 45.5292 22.3702 46.4231H14V54.452H22.3052C22.4352 55.3296 22.5977 56.2073 22.809 57.0687C23.0011 57.9226 23.2453 58.7639 23.5404 59.5879C23.6379 59.8316 23.7354 60.0917 23.8167 60.3517V60.433L24.1093 61.1969C24.3205 61.717 24.5481 62.2371 24.7919 62.7409V62.8709C24.9056 63.066 25.0032 63.2772 25.1007 63.4723V63.6186L25.4907 64.3174C25.6208 64.5612 25.767 64.7888 25.9133 65.0326V65.1626L26.2546 65.6989C26.2884 65.7649 26.3323 65.8252 26.3846 65.8777C26.4822 66.0565 26.6122 66.219 26.726 66.3978L26.8235 66.5441L27.2948 67.1942L22.0289 73.0289L27.6849 78.7012L33.2758 73.0289L33.926 73.5003L34.0885 73.614L34.5923 73.9553L34.7874 74.0854L35.3237 74.4267L35.4537 74.5079L36.1688 74.9305L36.8677 75.3206H37.014L37.6153 75.6294H37.7454C38.2492 75.8894 38.753 76.117 39.2731 76.3283L40.037 76.6371L40.8009 76.9134C41.6298 77.1897 42.4262 77.4335 43.3201 77.6447C44.1815 77.8398 45.0429 78.0186 45.9368 78.1486V86.4538H53.9657V78.4086C54.8433 78.2786 55.721 78.0998 56.5824 77.9048C57.4438 77.6935 58.2889 77.4497 59.1016 77.1734L59.8655 76.8971H59.9467L60.7106 76.5883C61.2307 76.377 61.7508 76.1495 62.2546 75.8894H62.3847L62.986 75.5806H63.1323L63.8312 75.1906L64.5463 74.768L64.6763 74.6867L65.2126 74.3454L65.3914 74.2154L65.9115 73.8741L66.0578 73.7603C66.2853 73.614 66.4966 73.4515 66.7079 73.289L72.5102 78.6849L78.1661 73.0289L72.5102 67.4217C72.6727 67.2104 72.8352 66.9991 72.9815 66.7716L73.1603 66.6253ZM64.27 64.7888C61.3668 67.7162 57.6226 69.6649 53.5594 70.3635H53.0718L52.0804 70.4935C51.4302 70.4935 50.7639 70.591 50.0975 70.591C49.4311 70.591 48.7648 70.591 48.0984 70.4935L47.1232 70.3635H46.6357C42.5662 69.6692 38.8157 67.72 35.9088 64.7888C34.0477 62.9258 32.5681 60.7175 31.553 58.2876L31.4068 57.8976C31.4068 57.7838 31.3255 57.6538 31.2768 57.5237L31.1792 57.28V57.0687C31.098 56.7924 31.0005 56.5323 30.9354 56.256C30.9282 56.213 30.9282 56.169 30.9354 56.126C30.8542 55.8497 30.7729 55.5572 30.7079 55.2646V55.1833C30.7079 54.8908 30.5779 54.5982 30.5291 54.3057V54.2244C30.5369 54.0945 30.5369 53.9643 30.5291 53.8344V53.5256C30.5291 53.0542 30.4153 52.5666 30.3828 52.0791C30.3828 51.9653 30.3828 51.8353 30.3828 51.7215V51.5752C30.3748 51.4779 30.3748 51.38 30.3828 51.2827C30.3908 51.2179 30.3908 51.1524 30.3828 51.0876V50.1125C30.3908 50.0477 30.3908 49.9822 30.3828 49.9174C30.3743 49.8147 30.3743 49.7114 30.3828 49.6086V49.4786C30.3828 49.3648 30.3828 49.2348 30.3828 49.121C30.3828 48.6497 30.4641 48.1621 30.5291 47.6908V47.6095C30.5291 47.4633 30.5291 47.3332 30.5291 47.2032C30.5291 46.9107 30.6429 46.6019 30.7079 46.3093C30.7079 46.0005 30.8542 45.6754 30.9517 45.3666C31.0817 44.9116 31.228 44.4727 31.3905 44.0177V43.9201C31.3905 43.8064 31.4718 43.6926 31.5205 43.5626V43.4488L31.6506 43.1075C31.6567 43.0589 31.6567 43.0098 31.6506 42.9612L31.7806 42.6687V42.5224L31.9269 42.2299C32.0569 41.9373 32.2032 41.6448 32.3494 41.3522C33.2806 39.6066 34.4634 38.0076 35.86 36.6064L36.2176 36.2813L36.3314 36.1675L36.5589 35.9563L36.7539 35.6475L36.9652 35.4524L37.1278 35.3224L37.3228 35.1436L37.5016 35.0136L37.6966 34.8511L37.8754 34.7211L38.0704 34.5585L38.2492 34.4285L38.4605 34.2822L38.6393 34.1522L38.8343 34.0059L39.0293 33.8922L39.4194 33.6321L39.6144 33.5183L39.8257 33.3883L40.4108 33.047H40.5409L40.8009 32.917L40.9472 32.8357L41.2072 32.7057H41.3535L41.6298 32.5919L41.7761 32.5107L42.0524 32.3969H42.1986L42.4749 32.2831H42.6212L42.9138 32.1694H43.0275L43.3526 32.0556H43.4501L43.7914 31.9256C44.6264 31.6516 45.4789 31.4344 46.3431 31.2755H48.3747C48.8135 31.2755 49.2849 31.2755 49.74 31.2755H53.1043C53.9681 31.4366 54.8204 31.6537 55.656 31.9256L55.9973 32.0556H56.0948L56.4036 32.1694H56.5336L56.8262 32.2831H56.9562L57.2488 32.3969H57.395L57.6713 32.5107L57.8176 32.5919L58.0777 32.7057H58.2402L58.5002 32.8357L58.6465 32.917L58.9065 33.047H59.0366L59.6217 33.3883H59.7029L59.9142 33.5183C59.9795 33.5465 60.0399 33.5849 60.093 33.6321L60.3043 33.7621L60.4993 33.8922L60.6781 34.0059L60.8894 34.1522L61.0682 34.2822L61.2795 34.4285L61.442 34.5585L61.6533 34.7211L61.8321 34.8511L62.0271 35.0136L62.1896 35.1436L62.4009 35.3224L62.5634 35.4524L62.7747 35.6475L62.921 35.7775L63.1485 35.9888L63.2623 36.1025L63.6036 36.4276C64.2744 37.0997 64.8988 37.8165 65.4727 38.573C65.6352 38.8005 65.7977 39.0118 65.944 39.2393C66.4657 39.9905 66.9328 40.778 67.3418 41.596C67.6796 42.2661 67.9781 42.9553 68.2357 43.6601C68.3982 44.0827 68.5445 44.5215 68.6745 44.9603C68.8045 45.3992 68.7883 45.3666 68.837 45.5779C68.967 46.0818 69.0808 46.6181 69.1621 47.2032C69.2433 47.7883 69.2596 47.8208 69.3083 48.1134C69.3571 48.4059 69.3083 48.4872 69.3083 48.666C69.3734 49.3269 69.4059 49.9933 69.4059 50.6651C69.4084 51.4967 69.3541 52.3275 69.2433 53.1517C69.2433 53.4768 69.1946 53.8019 69.0971 54.1269C69.0971 54.6145 68.9183 55.0858 68.8045 55.5572C68.6907 56.0285 68.642 56.191 68.5445 56.4998C68.447 56.8086 68.3494 57.1174 68.2357 57.4262C67.4467 60.1322 66.0953 62.6411 64.27 64.7888Z" fill="white"/>
<path d="M54.1608 46.6018H46.1319V54.6307H54.1608V46.6018Z" fill="white"/>
</svg>

<svg width="100" height="101" fill="none" xmlns="http://www.w3.org/2000/svg"><circle cx="50" cy="50.486" r="50" fill="#00AEEF"/><path d="m73.16 66.625.342-.52c.047-.056.09-.116.13-.178l.34-.537a.915.915 0 0 1 .082-.13l.423-.715.39-.699V63.7c.114-.195.211-.407.309-.602v-.13c.26-.503.487-1.024.698-1.527.114-.244.212-.504.31-.764v-.081a26.963 26.963 0 0 0 1.008-3.283c.194-.862.373-1.74.503-2.617H86v-8.094h-8.11a33.84 33.84 0 0 0-.504-2.617c-.211-.845-.455-1.625-.731-2.519-.082-.26-.18-.504-.277-.764-.097-.26-.195-.52-.308-.764a18.448 18.448 0 0 0-.7-1.528v-.13a7 7 0 0 0-.308-.6v-.147l-.39-.7c-.147-.243-.276-.487-.423-.714l-.081-.13-.341-.537-.13-.195-.342-.503-.114-.163-.47-.65 5.59-5.591-5.85-5.802-5.608 5.574-.65-.47-.147-.13c-.178-.115-.34-.245-.52-.342l-.178-.13-.537-.342h-.13l-.715-.422-.699-.39h-.146l-.601-.309h-.13a31.505 31.505 0 0 0-1.528-.683l-.764-.292h-.081l-.764-.276a21.407 21.407 0 0 0-2.52-.732 28.569 28.569 0 0 0-2.616-.504v-8.58h-8.094v8.305c-.894.13-1.755.292-2.617.504a23.4 23.4 0 0 0-2.519.731l-.764.276-.78.293a25.64 25.64 0 0 0-1.528.683h-.13l-.601.308h-.146l-.7.39-.714.423h-.13l-.537.341-.195.114-.633.634-.163.098c-.211.162-.423.325-.65.47l-5.591-5.541-5.656 5.656 5.575 5.59c-.147.228-.31.44-.472.65l-.097.163c-.114.163-.244.342-.341.504l-.13.195-.342.537a.577.577 0 0 0 0 .13c-.146.227-.292.47-.423.715l-.422.698v.147l-.309.601v.13a25.637 25.637 0 0 0-.682 1.528l-.504.731c0 .26-.18.504-.277.764-.276.83-.536 1.626-.731 2.52a27.577 27.577 0 0 0-.504 2.616H14v8.029h8.305c.13.878.293 1.755.504 2.617.192.854.436 1.695.731 2.519.098.244.195.504.277.764v.081l.292.764c.211.52.44 1.04.683 1.544v.13c.114.195.211.406.309.601v.147l.39.698c.13.244.276.472.422.716v.13l.342.536a.716.716 0 0 0 .13.179c.097.178.227.341.341.52l.098.146.47.65-5.265 5.835 5.656 5.672 5.59-5.672.651.471.163.114.503.341.195.13.537.342.13.08.715.423.699.39h.146l.601.31h.13c.504.26 1.008.487 1.528.698l.764.31.764.275c.829.277 1.625.52 2.52.732.86.195 1.722.374 2.616.504v8.305h8.029V78.41c.877-.13 1.755-.31 2.616-.504a30.193 30.193 0 0 0 2.52-.732l.764-.276h.08l.765-.309c.52-.211 1.04-.438 1.544-.699h.13l.601-.308h.146l.7-.39.714-.423.13-.081.537-.342.178-.13.52-.34.147-.115c.227-.146.439-.309.65-.471l5.802 5.396 5.656-5.656-5.656-5.607c.163-.212.325-.423.471-.65l.18-.147Zm-8.89-1.836a19.813 19.813 0 0 1-10.71 5.575h-.488l-.992.13c-.65 0-1.316.097-1.983.097-.666 0-1.332 0-1.999-.097l-.975-.13h-.487a19.796 19.796 0 0 1-10.727-5.575 20.235 20.235 0 0 1-4.356-6.501l-.146-.39c0-.114-.081-.244-.13-.374l-.098-.244v-.211c-.081-.277-.178-.537-.244-.813a.394.394 0 0 1 0-.13 13.349 13.349 0 0 1-.227-.861v-.082c0-.292-.13-.585-.179-.877v-.082c.008-.13.008-.26 0-.39v-.308c0-.472-.114-.96-.146-1.447v-.504a1.785 1.785 0 0 1 0-.292.796.796 0 0 0 0-.195v-.976a.796.796 0 0 0 0-.195 1.873 1.873 0 0 1 0-.308v-.488c0-.471.081-.959.146-1.43v-.488c0-.292.114-.601.179-.894 0-.308.146-.634.244-.942.13-.455.276-.894.438-1.35v-.097c0-.114.082-.227.13-.357v-.114l.13-.341a.587.587 0 0 0 0-.147l.13-.292v-.147l.147-.292c.13-.293.276-.585.422-.878a20.171 20.171 0 0 1 3.511-4.746l.358-.325.113-.114.228-.21.195-.31.211-.195.163-.13.195-.178.179-.13.195-.163.178-.13.195-.162.18-.13.21-.147.18-.13.194-.146.195-.114.39-.26.195-.114.212-.13.585-.341h.13l.26-.13.146-.081.26-.13h.146l.277-.114.146-.081.276-.114h.147l.276-.114h.146l.293-.114h.114l.325-.113h.097l.341-.13a19.486 19.486 0 0 1 2.552-.65h6.761c.864.16 1.716.378 2.552.65l.341.13h.098l.309.113h.13l.292.114h.13l.293.114h.146l.276.114.147.08.26.115h.162l.26.13.147.081.26.13h.13l.585.341h.08l.212.13a.667.667 0 0 1 .179.114l.211.13.195.13.18.114.21.146.18.13.21.147.163.13.211.162.18.13.194.163.163.13.21.178.163.13.212.196.146.13.227.21.114.114.342.326c.67.672 1.295 1.389 1.869 2.145.162.227.325.439.471.666.522.752.989 1.539 1.398 2.357.338.67.636 1.36.894 2.064.162.423.308.862.438 1.3.13.44.114.407.163.618.13.504.244 1.04.325 1.625.081.585.098.618.146.91.05.293 0 .374 0 .553.065.66.098 1.327.098 2 .002.83-.052 1.662-.163 2.486 0 .325-.048.65-.146.975 0 .487-.179.959-.292 1.43a11.42 11.42 0 0 1-.26.943c-.098.309-.196.617-.31.926a20.025 20.025 0 0 1-3.965 7.363Z" fill="#fff"/><path d="M54.16 46.602h-8.028v8.029h8.029V46.6Z" fill="#fff"/></svg>
